X:1
T:Wendel's Wedding
M:C|
L:1/8
C:Tony Cuffe
S:Jerry O'Sullivan THE GIFT (Trk 2)
R:Air
Z:Ed Wosik
K:G
gf|:e2 de B3 A| G>B AG E2 g>f| e2 d>e B2 A/B/c/d/| e4 z3 d| e2 d<e B3 A|
G>B AG E2 G>A| B<e d<B A<G B>A| G6:||:
GA|B2 AG e2 de/f/| g>f ed e2 de/f/| g>f ed BG (3Bcd| e4 z3 d| e2 d<e B3
A| G>B AG E2 G>A| B<e d<B A<G B>A| G6||
